icons/desktop/16/knife-and-fork-16.svg

<svg width="16" height="16" viewBox="0 0 16 16" fill="none" xmlns="http://www.w3.org/2000/svg">
<path d="M8 1C8.41421 1 8.75 1.33579 8.75 1.75V5.875C8.75 7.48133 7.62799 8.82396 6.125 9.16504V14.25C6.12499 14.6642 5.78921 15 5.375 15C4.96079 15 4.62501 14.6642 4.625 14.25V9.16504C3.12201 8.82396 2 7.48133 2 5.875V1.75C2 1.33579 2.33579 1 2.75 1C3.16421 1 3.5 1.33579 3.5 1.75V5.875C3.5 6.91079 4.33921 7.75 5.375 7.75C6.41079 7.75 7.25 6.91079 7.25 5.875V1.75C7.25 1.33579 7.58579 1 8 1Z" fill="black"/>
<path fill-rule="evenodd" clip-rule="evenodd" d="M14.249 1C14.6632 1.00001 14.999 1.33579 14.999 1.75V9.19141C15.0005 9.21076 15.002 9.23026 15.002 9.25C15.002 9.26941 15.0005 9.28858 14.999 9.30762V14C14.999 14.4142 14.6632 14.75 14.249 14.75C13.8348 14.75 13.499 14.4142 13.499 14V10H12.25C11.0068 10 10 8.99321 10 7.75V5.24902C10 2.90181 11.9018 1 14.249 1ZM13.499 2.60645C12.3454 2.93295 11.5 3.99055 11.5 5.24902V7.75C11.5 8.16479 11.8352 8.5 12.25 8.5H13.499V2.60645Z" fill="black"/>
<path d="M5.375 1C5.72018 1 6 1.27982 6 1.625V5.75C6 6.09518 5.72018 6.375 5.375 6.375C5.02982 6.375 4.75 6.09518 4.75 5.75V1.625C4.75 1.27982 5.02982 1 5.375 1Z" fill="black"/>
</svg>

<!-- This Source Code Form is subject to the terms of the Mozilla Public
   - License, v. 2.0. If a copy of the MPL was not distributed with this
   - file, You can obtain one at http://mozilla.org/MPL/2.0/. -->
<svg xmlns="http://www.w3.org/2000/svg" width="16" height="16" fill="context-fill" fill-opacity="context-fill-opacity" viewBox="0 0 16 16">
    <path d="M8 1a.75.75 0 0 1 .75.75v4.125a3.375 3.375 0 0 1-2.625 3.29v5.085a.75.75 0 0 1-1.5 0V9.165A3.375 3.375 0 0 1 2 5.875V1.75a.75.75 0 0 1 1.5 0v4.125a1.875 1.875 0 1 0 3.75 0V1.75A.75.75 0 0 1 8 1" />
    <path fill-rule="evenodd" d="M14.249 1a.75.75 0 0 1 .75.75v7.441a1 1 0 0 1 0 .117V14a.75.75 0 0 1-1.5 0v-4H12.25A2.25 2.25 0 0 1 10 7.75V5.249A4.25 4.25 0 0 1 14.249 1m-.75 1.606A2.75 2.75 0 0 0 11.5 5.25v2.5c0 .415.335.75.75.75h1.249z" clip-rule="evenodd" />
    <path d="M5.375 1C5.72 1 6 1.28 6 1.625V5.75a.625.625 0 1 1-1.25 0V1.625c0-.345.28-.625.625-.625" />
</svg>
